X:172
%%titlespace -15
%%composerspace -15
T:Buttermere
C:Chris Dewhurst
M:3/4
L:1/4
K:Am
C/D/ | "Am"E3/E/E | "Dm"FED | "Am"E3/A/B | cAA | "Dm"d3/c/B | "Am"B/c/eA | "B7"cB3/^F/ | "E"B2 C/D/ | 
"Am"E3/E/E | "Dm"FED | "Am"E3/A/B | cAA | "Dm"d3/c/B | "Am"B/c/eA | "E7"cB3/A/ | "Am"A2 ||
c/d/ | "A7"e3/e/e | "Dm"fdc | "G"B3/c/d | "C"ecB | "F"A3/B/c | "Dm"dcB | "Am"A3/B/A | "E7"E2 C/D/ | 
"Am"E3/E/E | "Dm"FED | "Am"E3/A/B | cAA | "Dm"d3/c/B | "Am"B/c/eA | "E7"cB3/A/ | "Am"A2 |]

%%newpage

